Numix-Circle/48x48/apps/kmahjongg.svg

<?xml version="1.0" encoding="UTF-8" standalone="no"?>
<svg
   xmlns:dc="http://purl.org/dc/elements/1.1/"
   xmlns:cc="http://creativecommons.org/ns#"
   xmlns:rdf="http://www.w3.org/1999/02/22-rdf-syntax-ns#"
   xmlns:svg="http://www.w3.org/2000/svg"
   xmlns="http://www.w3.org/2000/svg"
   xmlns:xlink="http://www.w3.org/1999/xlink"
   xmlns:sodipodi="http://sodipodi.sourceforge.net/DTD/sodipodi-0.dtd"
   xmlns:inkscape="http://www.inkscape.org/namespaces/inkscape"
   viewBox="0 0 48 48"
   id="svg2"
   version="1.1"
   inkscape:version="0.91 r13725"
   width="100%"
   height="100%"
   sodipodi:docname="kmahjongg3.svg">
  <metadata
     id="metadata65">
    <rdf:RDF>
      <cc:Work
         rdf:about="">
        <dc:format>image/svg+xml</dc:format>
        <dc:type
           rdf:resource="http://purl.org/dc/dcmitype/StillImage" />
        <dc:title></dc:title>
      </cc:Work>
    </rdf:RDF>
  </metadata>
  <sodipodi:namedview
     pagecolor="#ffffff"
     bordercolor="#666666"
     borderopacity="1"
     objecttolerance="10"
     gridtolerance="10"
     guidetolerance="10"
     inkscape:pageopacity="0"
     inkscape:pageshadow="2"
     inkscape:window-width="1366"
     inkscape:window-height="713"
     id="namedview63"
     showgrid="false"
     inkscape:zoom="16"
     inkscape:cx="23.272475"
     inkscape:cy="25.739134"
     inkscape:window-x="0"
     inkscape:window-y="28"
     inkscape:window-maximized="1"
     inkscape:current-layer="svg2"
     showguides="false"
     inkscape:guide-bbox="true">
    <inkscape:grid
       type="xygrid"
       id="grid3847" />
  </sodipodi:namedview>
  <defs
     id="defs4">
    <linearGradient
       id="linearGradient3839">
      <stop
         style="stop-color:#b33c29;stop-opacity:1"
         offset="0"
         id="stop3841" />
      <stop
         style="stop-color:#c3412d;stop-opacity:1"
         offset="1"
         id="stop3843" />
    </linearGradient>
    <linearGradient
       inkscape:collect="always"
       xlink:href="#linearGradient3839"
       id="linearGradient3845"
       x1="24"
       y1="47"
       x2="24"
       y2="1"
       gradientUnits="userSpaceOnUse" />
  </defs>
  <g
     id="g21">
    <path
       d="m 36.31 5 c 5.859 4.062 9.688 10.831 9.688 18.5 c 0 12.426 -10.07 22.5 -22.5 22.5 c -7.669 0 -14.438 -3.828 -18.5 -9.688 c 1.037 1.822 2.306 3.499 3.781 4.969 c 4.085 3.712 9.514 5.969 15.469 5.969 c 12.703 0 23 -10.298 23 -23 c 0 -5.954 -2.256 -11.384 -5.969 -15.469 c -1.469 -1.475 -3.147 -2.744 -4.969 -3.781 z m 4.969 3.781 c 3.854 4.113 6.219 9.637 6.219 15.719 c 0 12.703 -10.297 23 -23 23 c -6.081 0 -11.606 -2.364 -15.719 -6.219 c 4.16 4.144 9.883 6.719 16.219 6.719 c 12.703 0 23 -10.298 23 -23 c 0 -6.335 -2.575 -12.06 -6.719 -16.219 z"
       opacity="0.05"
       id="path23" />
    <path
       d="m 41.28 8.781 c 3.712 4.085 5.969 9.514 5.969 15.469 c 0 12.703 -10.297 23 -23 23 c -5.954 0 -11.384 -2.256 -15.469 -5.969 c 4.113 3.854 9.637 6.219 15.719 6.219 c 12.703 0 23 -10.298 23 -23 c 0 -6.081 -2.364 -11.606 -6.219 -15.719 z"
       opacity="0.1"
       id="path25" />
    <path
       d="m 31.25 2.375 c 8.615 3.154 14.75 11.417 14.75 21.13 c 0 12.426 -10.07 22.5 -22.5 22.5 c -9.708 0 -17.971 -6.135 -21.12 -14.75 a 23 23 0 0 0 44.875 -7 a 23 23 0 0 0 -16 -21.875 z"
       opacity="0.2"
       id="path27" />
  </g>
  <g
     id="g29">
    <path
       d="m 24 1 c 12.703 0 23 10.297 23 23 c 0 12.703 -10.297 23 -23 23 -12.703 0 -23 -10.297 -23 -23 0 -12.703 10.297 -23 23 -23 z"
       fill="url(#linearGradient3764)"
       fill-opacity="1"
       id="path31"
       style="fill:url(#linearGradient3845);fill-opacity:1.0" />
  </g>
  <g
     id="g33" />
  <g
     id="g59">
    <path
       d="m 40.03 7.531 c 3.712 4.084 5.969 9.514 5.969 15.469 0 12.703 -10.297 23 -23 23 c -5.954 0 -11.384 -2.256 -15.469 -5.969 4.178 4.291 10.01 6.969 16.469 6.969 c 12.703 0 23 -10.298 23 -23 0 -6.462 -2.677 -12.291 -6.969 -16.469 z"
       opacity="0.1"
       id="path61" />
  </g>
  <g
     transform="scale(0.98451788,1.0157256)"
     style="font-size:13.6171217px;font-style:normal;font-weight:normal;line-height:125%;letter-spacing:0px;word-spacing:0px;fill:#000000;fill-opacity:1;stroke:none;font-family:Sans"
     id="text3880" />
  <g
     transform="scale(1.0060815,0.99395525)"
     style="font-size:19.87910461px;font-style:normal;font-variant:normal;font-weight:normal;font-stretch:normal;line-height:125%;letter-spacing:0px;word-spacing:0px;fill:#000000;fill-opacity:1;stroke:none;font-family:Montserrat;-inkscape-font-specification:Montserrat"
     id="text3023" />
  <g
     transform="matrix(1.0296335,0,0,0.97121938,-0.03651564,2.4817894e-7)"
     style="font-size:18.98816872px;font-style:normal;font-variant:normal;font-weight:normal;font-stretch:normal;line-height:125%;letter-spacing:0px;word-spacing:0px;fill:#000000;fill-opacity:1;stroke:none;font-family:Montserrat;-inkscape-font-specification:Montserrat"
     id="text3791" />
  <text
     xml:space="preserve"
     style="font-style:normal;font-variant:normal;font-weight:normal;font-stretch:normal;font-size:20px;line-height:125%;font-family:Montserrat;-inkscape-font-specification:Montserrat;letter-spacing:0px;word-spacing:0px;fill:#000000;fill-opacity:1;stroke:none;stroke-width:1px;stroke-linecap:butt;stroke-linejoin:miter;stroke-opacity:1"
     x="17"
     y="18"
     id="text4202"
     sodipodi:linespacing="125%"><tspan
       sodipodi:role="line"
       id="tspan4204"
       x="17"
       y="18"
       style="font-style:normal;font-variant:normal;font-weight:normal;font-stretch:normal;font-family:Changa;-inkscape-font-specification:Changa" /></text>
  <g
     id="g4199">
    <path
       style="fill:#000000;fill-opacity:0.09803922"
       d="M 24.33,37.800713 C 23.906076,37.327903 24,35.999999 24,31.690383 l 0,-4.690384 c -2,0.251744 -3,0.525482 -4.25301,0.98043 -0.517676,0.64035 -0.74699,0.73789 -1.210869,0.28314 -0.378855,-0.39914 -0.60977,-1.231686 -1.610342,-4.609086 -0.280581,-0.94709 -0.735932,-2.21859 -1.011897,-2.82556 -0.602744,-1.32574 -0.559756,-1.62682 0.211982,-1.48438 0.292391,0.0539 0.812369,0.212951 1.155467,0.414091 C 17.712593,19.999999 18,19.999999 18.599103,19.949999 20.347335,19.576886 22,19.248669 24,18.799999 l 0,-2.214716 c 0,-2.585284 -0.261857,-2.43666 -0.638195,-3.1669 -0.73082,-1.41802 -0.278135,-1.80468 1.188865,-1.01548 1.170754,0.62983 1.759618,1.31541 1.639242,1.90851 C 26.140082,14.556823 26,15.502703 26,16.585223 l 0,1.864776 c 2,-0.5 4,-0.842738 5.788979,-1.05 0.734614,0 2.71102,1.513724 2.71102,2.071774 0,0.15465 -0.163702,0.49781 -0.363785,0.76258 -0.337263,0.44632 -1.073226,2.06454 -1.792365,3.66339 -0.166664,0.37056 -0.303022,0.93558 -0.303022,1.25562 0,0.45475 -0.0534,0.846636 -0.244676,0.846636 -1.325596,0 -5.378826,0.679227 -5.796151,0.76 0,7.221 0,10.24 -0.873009,11.091404 -0.227586,0.20789 -0.568969,0.20363 -0.796991,-0.05069 z M 24,24.999999 l 0,-4.6 c 0,0 -3.675796,0.65142 -5.032208,1 -0.746176,0.19177 -0.624485,0.6 0.266483,3.87289 0.147572,0.542091 0.35349,0.711669 0.683234,0.62711 C 21,25.622406 22,25.357089 24,24.999999 Z m 6.3,-1 c 0.32431,-0.154 0.285049,-0.142496 0.75,-2.266146 0.374911,-1.7125 0.534221,-2.318934 0.35,-2.433854 -0.113471,-0.224164 -3.4,0.231655 -5.4,0.7 l 0,4.7 c 2,-0.356908 3.337853,-0.51843 4.3,-0.7 z"
       id="path4197"
       inkscape:connector-curvature="0"
       sodipodi:nodetypes="cscccssccccccsccccsccsscccccccsccccccc" />
    <path
       sodipodi:nodetypes="cscccssccccccsccccsccsscccccccsccccccc"
       inkscape:connector-curvature="0"
       id="path4140"
       d="M 23.33,36.800714 C 22.906076,36.327904 23,35 23,30.690384 L 23,26 c -2,0.251744 -3,0.525482 -4.25301,0.98043 -0.517676,0.64035 -0.74699,0.73789 -1.210869,0.28314 -0.378855,-0.39914 -0.60977,-1.231686 -1.610342,-4.609086 -0.280581,-0.94709 -0.735932,-2.21859 -1.011897,-2.82556 -0.602744,-1.32574 -0.559756,-1.62682 0.211982,-1.48438 0.292391,0.0539 0.812369,0.212951 1.155467,0.414091 C 16.712593,19 17,19 17.599103,18.95 19.347335,18.576887 21,18.24867 23,17.8 l 0,-2.214716 C 23,13 22.738143,13.148624 22.361805,12.418384 c -0.73082,-1.41802 -0.278135,-1.80468 1.188865,-1.01548 1.170754,0.62983 1.759618,1.31541 1.639242,1.90851 C 25.140082,13.556824 25,14.502704 25,15.585224 L 25,17.45 c 2,-0.5 4,-0.842738 5.788979,-1.05 0.734614,0 2.71102,1.513724 2.71102,2.071774 0,0.15465 -0.163702,0.49781 -0.363785,0.76258 -0.337263,0.44632 -1.073226,2.06454 -1.792365,3.66339 -0.166664,0.37056 -0.303022,0.93558 -0.303022,1.25562 C 31.040827,24.608114 30.987425,25 30.796151,25 29.470555,25 25.417325,25.679227 25,25.76 25,32.981 25,36 24.126991,36.851404 23.899405,37.059294 23.558022,37.055034 23.33,36.800714 Z M 23,24 23,19.4 c 0,0 -3.675796,0.65142 -5.032208,1 -0.746176,0.19177 -0.624485,0.6 0.266483,3.87289 0.147572,0.542091 0.35349,0.711669 0.683234,0.62711 C 20,24.622407 21,24.35709 23,24 Z m 6.3,-1 c 0.32431,-0.154 0.285049,-0.142496 0.75,-2.266146 C 30.424911,19.021354 30.584221,18.41492 30.4,18.3 30.286529,18.075836 27,18.531655 25,19 l 0,4.7 c 2,-0.356908 3.337853,-0.51843 4.3,-0.7 z"
       style="fill:#e6e6e6" />
  </g>
</svg>

<svg xmlns="http://www.w3.org/2000/svg" viewBox="0 0 48 48">
 <defs>
  <linearGradient id="linearGradient3845" y1="47" x2="0" y2="1" gradientUnits="userSpaceOnUse">
   <stop style="stop-color:#b33c29;stop-opacity:1"/>
   <stop offset="1" style="stop-color:#c3412d;stop-opacity:1"/>
  </linearGradient>
 </defs>
 <g>
  <path d="m 36.31 5 c 5.859 4.062 9.688 10.831 9.688 18.5 c 0 12.426 -10.07 22.5 -22.5 22.5 c -7.669 0 -14.438 -3.828 -18.5 -9.688 c 1.037 1.822 2.306 3.499 3.781 4.969 c 4.085 3.712 9.514 5.969 15.469 5.969 c 12.703 0 23 -10.298 23 -23 c 0 -5.954 -2.256 -11.384 -5.969 -15.469 c -1.469 -1.475 -3.147 -2.744 -4.969 -3.781 z m 4.969 3.781 c 3.854 4.113 6.219 9.637 6.219 15.719 c 0 12.703 -10.297 23 -23 23 c -6.081 0 -11.606 -2.364 -15.719 -6.219 c 4.16 4.144 9.883 6.719 16.219 6.719 c 12.703 0 23 -10.298 23 -23 c 0 -6.335 -2.575 -12.06 -6.719 -16.219 z" style="opacity:0.05"/>
  <path d="m 41.28 8.781 c 3.712 4.085 5.969 9.514 5.969 15.469 c 0 12.703 -10.297 23 -23 23 c -5.954 0 -11.384 -2.256 -15.469 -5.969 c 4.113 3.854 9.637 6.219 15.719 6.219 c 12.703 0 23 -10.298 23 -23 c 0 -6.081 -2.364 -11.606 -6.219 -15.719 z" style="opacity:0.1"/>
  <path d="m 31.25 2.375 c 8.615 3.154 14.75 11.417 14.75 21.13 c 0 12.426 -10.07 22.5 -22.5 22.5 c -9.708 0 -17.971 -6.135 -21.12 -14.75 a 23 23 0 0 0 44.875 -7 a 23 23 0 0 0 -16 -21.875 z" style="opacity:0.2"/>
 </g>
 <g>
  <path d="m 24 1 c 12.703 0 23 10.297 23 23 c 0 12.703 -10.297 23 -23 23 -12.703 0 -23 -10.297 -23 -23 0 -12.703 10.297 -23 23 -23 z" style="fill:url(#linearGradient3845);fill-opacity:1"/>
 </g>
 <g>
  <path d="m 40.03 7.531 c 3.712 4.084 5.969 9.514 5.969 15.469 0 12.703 -10.297 23 -23 23 c -5.954 0 -11.384 -2.256 -15.469 -5.969 4.178 4.291 10.01 6.969 16.469 6.969 c 12.703 0 23 -10.298 23 -23 0 -6.462 -2.677 -12.291 -6.969 -16.469 z" style="opacity:0.1"/>
 </g>
 <text x="17" y="18" line-height="125%" style="letter-spacing:0;word-spacing:0;font-size:20;font-family:Montserrat;fill:#000;fill-opacity:1;font-weight:normal;stroke:none;font-style:normal;font-variant:normal;font-stretch:normal"><tspan x="17" y="18" style="font-family:Changa"/>
 </text>
 <g>
  <path d="m 24.33 37.801 c -0.424 -0.473 -0.33 -1.801 -0.33 -6.11 l 0 -4.69 c -2 0.252 -3 0.525 -4.253 0.98 -0.518 0.64 -0.747 0.738 -1.211 0.283 -0.379 -0.399 -0.61 -1.232 -1.61 -4.609 -0.281 -0.947 -0.736 -2.219 -1.012 -2.826 -0.603 -1.326 -0.56 -1.627 0.212 -1.484 0.292 0.054 0.812 0.213 1.155 0.414 c 0.431 0.241 0.719 0.241 1.318 0.191 1.748 -0.373 3.401 -0.701 5.401 -1.15 l 0 -2.215 c 0 -2.585 -0.262 -2.437 -0.638 -3.167 -0.731 -1.418 -0.278 -1.805 1.189 -1.015 1.171 0.63 1.76 1.315 1.639 1.909 c -0.05 0.245 -0.19 1.191 -0.19 2.274 l 0 1.865 c 2 -0.5 4 -0.843 5.789 -1.05 0.735 0 2.711 1.514 2.711 2.072 0 0.155 -0.164 0.498 -0.364 0.763 -0.337 0.446 -1.073 2.065 -1.792 3.663 -0.167 0.371 -0.303 0.936 -0.303 1.256 0 0.455 -0.053 0.847 -0.245 0.847 -1.326 0 -5.379 0.679 -5.796 0.76 0 7.221 0 10.24 -0.873 11.09 -0.228 0.208 -0.569 0.204 -0.797 -0.051 z m -0.33 -12.801 l 0 -4.6 c 0 0 -3.676 0.651 -5.03 1 -0.746 0.192 -0.624 0.6 0.266 3.873 0.148 0.542 0.353 0.712 0.683 0.627 c 1.082 -0.278 2.082 -0.543 4.082 -0.9 m 6.3 -1 c 0.324 -0.154 0.285 -0.142 0.75 -2.266 0.375 -1.712 0.534 -2.319 0.35 -2.434 -0.113 -0.224 -3.4 0.232 -5.4 0.7 l 0 4.7 c 2 -0.357 3.338 -0.518 4.3 -0.7 z" style="fill:#000;fill-opacity:0.098"/>
  <path d="m 23.33 36.801 c -0.424 -0.473 -0.33 -1.801 -0.33 -6.11 l 0 -4.69 c -2 0.252 -3 0.525 -4.253 0.98 -0.518 0.64 -0.747 0.738 -1.211 0.283 -0.379 -0.399 -0.61 -1.232 -1.61 -4.609 -0.281 -0.947 -0.736 -2.219 -1.012 -2.826 -0.603 -1.326 -0.56 -1.627 0.212 -1.484 0.292 0.054 0.812 0.213 1.155 0.414 c 0.431 0.241 0.719 0.241 1.318 0.191 1.748 -0.373 3.401 -0.701 5.401 -1.15 l 0 -2.215 c 0 -2.585 -0.262 -2.437 -0.638 -3.167 c -0.731 -1.418 -0.278 -1.805 1.189 -1.015 1.171 0.63 1.76 1.315 1.639 1.909 c -0.05 0.245 -0.19 1.191 -0.19 2.274 l 0 1.865 c 2 -0.5 4 -0.843 5.789 -1.05 0.735 0 2.711 1.514 2.711 2.072 0 0.155 -0.164 0.498 -0.364 0.763 -0.337 0.446 -1.073 2.065 -1.792 3.663 -0.167 0.371 -0.303 0.936 -0.303 1.256 c 0 0.455 -0.053 0.847 -0.245 0.847 -1.326 0 -5.379 0.679 -5.796 0.76 0 7.221 0 10.24 -0.873 11.09 -0.228 0.208 -0.569 0.204 -0.797 -0.051 m -0.33 -12.801 0 -4.6 c 0 0 -3.676 0.651 -5.03 1 -0.746 0.192 -0.624 0.6 0.266 3.873 0.148 0.542 0.353 0.712 0.683 0.627 c 1.082 -0.278 2.082 -0.543 4.082 -0.9 m 6.3 -1 c 0.324 -0.154 0.285 -0.142 0.75 -2.266 c 0.375 -1.713 0.534 -2.319 0.35 -2.434 -0.113 -0.224 -3.4 0.232 -5.4 0.7 l 0 4.7 c 2 -0.357 3.338 -0.518 4.3 -0.7 z" style="fill:#e6e6e6"/>
 </g>
</svg>
